actions/22x22-light/edit-table-insert-row-below.svg

<svg viewBox="0 0 22 22" xmlns="http://www.w3.org/2000/svg"><path d="m3 3v10 6h1v-6-4h1 1v4h1v-4h2v4h1v-4h2v4 6h1v-6-4h2v4h1v-4h2v4h1v-9-1h-15zm1 1h2v3 1h-1-1zm3 0h2v4h-2v-1zm3 0h2v4h-2zm3 0h2v3 1h-2zm3 0h2v4h-.900391-1.099609v-1zm-2 10 2.5 5 2.5-5z" fill="#4d4d4d"/><path d="m4 13h5.29297 2.70703v1h-2.29297l-4 4h2.58594l3.70703-3.70703v1.41406l-2.29297 2.29297h2.29297v1h-8v-1h .29297l4-4h-4.29297z" fill="#3daee9"/></svg>

<svg xmlns="http://www.w3.org/2000/svg" viewBox="0 0 22 22">
  <defs id="defs3051">
    <style type="text/css" id="current-color-scheme">
      .ColorScheme-Text {
        color:#4d4d4d;
      }
      .ColorScheme-Highlight {
        color:#3daee9;
      }
      </style>
  </defs>
 <path 
    style="fill:currentColor;fill-opacity:1;stroke:none" 
     d="M 3 3 L 3 13 L 3 19 L 4 19 L 4 13 L 4 9 L 5 9 L 6 9 L 6 13 L 7 13 L 7 9 L 9 9 L 9 13 L 10 13 L 10 9 L 12 9 L 12 13 L 12 19 L 13 19 L 13 13 L 13 9 L 15 9 L 15 13 L 16 13 L 16 9 L 18 9 L 18 13 L 19 13 L 19 4 L 19 3 L 4 3 L 3 3 z M 4 4 L 6 4 L 6 7 L 6 8 L 5 8 L 4 8 L 4 4 z M 7 4 L 9 4 L 9 8 L 7 8 L 7 7 L 7 4 z M 10 4 L 12 4 L 12 8 L 10 8 L 10 4 z M 13 4 L 15 4 L 15 7 L 15 8 L 13 8 L 13 4 z M 16 4 L 18 4 L 18 8 L 17.099609 8 L 16 8 L 16 7 L 16 4 z M 14 14 L 16.5 19 L 19 14 L 14 14 z "
    class="ColorScheme-Text"
    />  
  <path
     style="fill:currentColor;fill-opacity:1;stroke:none" 
     class="ColorScheme-Highlight"
     d="M 4,13 9.29297,13 12,13 l 0,1 -2.29297,0 -4,4 2.58594,0 L 12,14.29297 12,15.70703 9.70703,18 12,18 l 0,1 -8,0 0,-1 0.29297,0 4,-4 L 4,14 4,13" />
</svg>
